X:62
T: Graf und Nonne (Die Nonne)
N: Q01558
O: Suedosteuropa, Rumaenien
N: Fermatenton zu Beginn der dritten und sechsten Zeile entsprechend
N: der Taktart zur Halben verlaengert.
R: Ballade, Standesunterschied, vergebliche Werbung, Liebes - Lied
M: 2/4
L: 1/8
K: G
D | GGFE | E2D
D | GGAc | B2z2
D4 | BABd | d2c
B | ADDc | c2B
A | GDBA | G2z2
D4 | BABd | d2c
B | ADDc | c2B
A | GDBA | G2z

